src/images/github.svg

<svg width="22" height="21" viewBox="0 0 22 21" fill="none" xmlns="http://www.w3.org/2000/svg">
<path fill-rule="evenodd" clip-rule="evenodd" d="M10.9998 0.894714C5.41678 0.894714 0.894531 5.42316 0.894531 11C0.894531 15.4664 3.7915 19.2504 7.80507 20.5904C8.30754 20.6834 8.49364 20.3732 8.49364 20.1003C8.49364 19.8584 8.48744 19.2256 8.48123 18.382C5.67111 18.9899 5.07559 17.0296 5.07559 17.0296C4.61654 15.8634 3.95278 15.5532 3.95278 15.5532C3.03469 14.9267 4.02102 14.9391 4.02102 14.9391C5.03217 15.0135 5.57186 15.9813 5.57186 15.9813C6.47135 17.5259 7.93534 17.0793 8.51225 16.8187C8.6053 16.1674 8.86584 15.7207 9.15119 15.4664C6.90558 15.2121 4.54831 14.3436 4.54831 10.4727C4.54831 9.36849 4.93912 8.46901 5.59047 7.76183C5.48501 7.50749 5.13762 6.47773 5.68972 5.08818C5.68972 5.08818 6.53958 4.81523 8.46882 6.12414C9.27526 5.90082 10.1375 5.78916 10.9998 5.78296C11.8559 5.78916 12.7243 5.90082 13.5308 6.12414C15.46 4.81523 16.3099 5.08818 16.3099 5.08818C16.862 6.47773 16.5146 7.50749 16.4091 7.76183C17.0543 8.46901 17.4451 9.36849 17.4451 10.4727C17.4451 14.356 15.0816 15.2059 12.8298 15.4602C13.1896 15.7704 13.5184 16.3907 13.5184 17.3336C13.5184 18.6859 13.5059 19.7715 13.5059 20.1065C13.5059 20.3794 13.6858 20.6896 14.2007 20.5904C18.2143 19.2504 21.1051 15.4664 21.1051 11.0062C21.1051 5.42316 16.5828 0.894714 10.9998 0.894714Z" fill="#191717"/>
</svg>

<svg width="22" height="21" fill="none" xmlns="http://www.w3.org/2000/svg"><path fill-rule="evenodd" clip-rule="evenodd" d="M11 .895C5.417.895.895 5.423.895 11c0 4.466 2.897 8.25 6.91 9.59.503.093.689-.217.689-.49 0-.242-.007-.874-.013-1.718-2.81.608-3.405-1.352-3.405-1.352-.46-1.167-1.123-1.477-1.123-1.477-.918-.626.068-.614.068-.614 1.011.075 1.55 1.042 1.55 1.042.9 1.545 2.364 1.098 2.941.838.093-.652.354-1.098.64-1.353-2.246-.254-4.604-1.122-4.604-4.993 0-1.105.391-2.004 1.042-2.711-.105-.255-.452-1.284.1-2.674 0 0 .85-.273 2.779 1.036a9.806 9.806 0 0 1 2.53-.341 9.843 9.843 0 0 1 2.532.341c1.929-1.309 2.779-1.036 2.779-1.036.552 1.39.205 2.42.1 2.674.644.707 1.035 1.606 1.035 2.71 0 3.884-2.363 4.734-4.615 4.988.36.31.688.93.688 1.874 0 1.352-.012 2.438-.012 2.773 0 .272.18.583.695.483 4.013-1.34 6.904-5.124 6.904-9.584C21.105 5.423 16.583.895 11 .895z" fill="#191717"/></svg>
